X:1
T:St. Paul’s (Stainer), SM
T:St. Paul’s (Stainer), SM
T:John Stainer, 1875
T:Public Domain Courtesy of the Cyber Hymnal™
C:John Stainer, 1875
Z:Public Domain
Z:Courtesy of the Cyber Hymnal™
%%score ( 1 2 ) ( 3 4 )
L:1/8
Q:1/4=115
M:4/4
K:D
V:1 treble 
V:2 treble 
V:3 bass 
V:4 bass 
V:1
 [FA]2 | [EA]2 [EG]2 [DF]2 [EG]2 | [CE]6 [DB]2 | [DA]2 [EG]2 [DF]2 [CE]2 | [DF]6 [Fd]2 | %5
 [Gc]2 [Ee]2 [Fd]2 [Ec]2 | [Dd]2 [DG]2 [DF]2 [CE]2 | [DA]2 [DB]2 [DF]2 [CE]2 | D6 |] %9
V:2
 x2 | x8 | x8 | x8 | x8 | x8 | x8 | x8 | D6 |] %9
V:3
 [D,A,]2 | [C,A,]2 [A,,C]2 [B,,D]2 [G,,B,]2 | [A,,A,]6 G,2 | [F,A,]2 [G,B,]2 A,2 [A,,A,]2 | %4
 [D,A,]6 [B,,B,]2 | [E,B,]2 [G,B,]2 [F,B,]2 [F,^A,]2 | [B,,B,]2 [B,D]2 [A,D]2 [G,A,]2 | %7
 [F,A,]2 [G,D]2 A,2 [A,,G,]2 | [D,F,]6 |] %9
V:4
 x2 | x8 | x6 G,2 | x4 A,2 x2 | x8 | x8 | x8 | x4 A,2 x2 | x6 |] %9

